X: 791
T: Pike's Peak
C:Ted Sharp, Hinman &#038; Sharp 1933
B: jims roots
M:4/4
L:1/8
R: reel
Q: 1/4=100
K:Cmaj
V:1 
DE/F/ |: "C"G2 c2 AcGA | cGAG EG G2 | "G"g3 e gage | d2ga gAcA |
         "C"G2 c2 AcG2 | cGAG EGGg- | "G"gega gedA |[1 "C"c6 DE:| [2 "C"c8 ||
|: "C"e3 e gege | aged cA c2 | "F"a3 a-a2 ga | agab ag e2 |
   "C"c'3 c'-c'2 c'a | d'ac'd' c'3 e | "G"gega gedA | [1 "C"c4-cd e2:| [2 "C"c8 ||
% abcbook-tune_id 6298c27958c3f9f836e8a254


% abcbook-boost 0
% abcbook-tablature 
% abcbook-transpose 
% abcbook-lastupdated 1654178426513
% abcbook-soundfonts 
% abcbook-repeats 1


